build/images/last-section/Vectorls-icon-9.svg

<svg width="79" height="79" viewBox="0 0 79 79" fill="none" xmlns="http://www.w3.org/2000/svg">
<path d="M11.1237 34.223C11.1237 34.223 17.3178 35.6283 25.8361 31.3422C26.5004 30.9973 27.1382 30.6034 27.7441 30.1639C30.4466 28.2127 40.8459 22.0077 53.8341 31.2449C54.8064 31.9895 55.8512 32.6341 56.9528 33.1691C59.2013 33.9582 66.3413 34.7473 67.9141 34.4609M67.6386 46.687H54.6016C54.6016 46.687 46.8238 46.9032 46.2671 54.2919C45.935 58.8747 45.935 63.4756 46.2671 68.0584M11.1237 46.687H24.166C24.166 46.687 31.9384 46.9032 32.4951 54.2919C32.8272 58.8747 32.8272 63.4756 32.4951 68.0584M77 39.9199C77 60.6306 60.2107 77.4199 39.5 77.4199C18.7893 77.4199 2 60.6306 2 39.9199C2 19.2092 18.7893 2.41992 39.5 2.41992C60.2107 2.41992 77 19.2092 77 39.9199ZM68.4331 39.9199C68.4331 55.8992 55.4793 68.853 39.5 68.853C23.5207 68.853 10.5669 55.8992 10.5669 39.9199C10.5669 23.9406 23.5207 10.9869 39.5 10.9869C55.4793 10.9869 68.4331 23.9406 68.4331 39.9199ZM46.2671 39.9199C46.2671 43.6573 43.2374 46.687 39.5 46.687C35.7626 46.687 32.7329 43.6573 32.7329 39.9199C32.7329 36.1826 35.7626 33.1528 39.5 33.1528C43.2374 33.1528 46.2671 36.1826 46.2671 39.9199Z" stroke="#0B8E42" stroke-width="3" stroke-linecap="round" stroke-linejoin="round"/>
</svg>

<svg width="79" height="79" fill="none" xmlns="http://www.w3.org/2000/svg"><path d="M11.124 34.223s6.194 1.405 14.712-2.88a15.099 15.099 0 0 0 1.908-1.18c2.703-1.95 13.102-8.155 26.09 1.082.972.744 2.017 1.39 3.119 1.924 2.248.79 9.388 1.578 10.961 1.292m-.275 12.226H54.602s-7.778.216-8.335 7.605a95.235 95.235 0 0 0 0 13.766M11.124 46.687h13.042s7.772.216 8.33 7.605a95.235 95.235 0 0 1 0 13.766M77 39.92c0 20.71-16.79 37.5-37.5 37.5S2 60.63 2 39.92s16.79-37.5 37.5-37.5S77 19.21 77 39.92zm-8.567 0c0 15.98-12.954 28.933-28.933 28.933-15.98 0-28.933-12.954-28.933-28.933 0-15.98 12.954-28.933 28.933-28.933 15.98 0 28.933 12.954 28.933 28.933zm-22.166 0a6.767 6.767 0 1 1-13.534 0 6.767 6.767 0 0 1 13.534 0z" stroke="#0B8E42" stroke-width="3" stroke-linecap="round" stroke-linejoin="round"/></svg>
